svgs/sharp-light/pipe-circle-check.svg

<svg xmlns="http://www.w3.org/2000/svg" viewBox="0 0 640 512"><!--! Font Awesome Pro 6.6.0 by @fontawesome - https://fontawesome.com License - https://fontawesome.com/license (Commercial License) Copyright 2024 Fonticons, Inc. --><path d="M32 96l0 16 0 16 224 0 192 0 0-16 0-16 32 0 0 16 0 32 0 48.7c-11 1-21.7 3-32 5.9l0-38.6-192 0L32 160l0 192 288.7 0c-.5 5.3-.7 10.6-.7 16s.2 10.7 .7 16L32 384l0 16 0 16L0 416l0-16 0-32L0 144l0-32L0 96l32 0zM496 480a112 112 0 1 0 0-224 112 112 0 1 0 0 224zm0-256a144 144 0 1 1 0 288 144 144 0 1 1 0-288zm78.6 112l-11.3 11.3-72 72L480 430.6l-11.3-11.3-40-40L417.4 368 440 345.4l11.3 11.3L480 385.4l60.7-60.7L552 313.4 574.6 336z"/></svg>

<svg xmlns="http://www.w3.org/2000/svg" viewBox="0 0 640 512"><!--! Font Awesome Pro 6.5.2 by @fontawesome - https://fontawesome.com License - https://fontawesome.com/license (Commercial License) Copyright 2024 Fonticons, Inc. --><path d="M32 96v16 16H256 448V112 96h32v16 32 48.7c-11 1-21.7 3-32 5.9V160H256 32V352H320.7c-.5 5.3-.7 10.6-.7 16s.2 10.7 .7 16H32v16 16H0V400 368 144 112 96H32zM496 480a112 112 0 1 0 0-224 112 112 0 1 0 0 224zm0-256a144 144 0 1 1 0 288 144 144 0 1 1 0-288zm78.6 112l-11.3 11.3-72 72L480 430.6l-11.3-11.3-40-40L417.4 368 440 345.4l11.3 11.3L480 385.4l60.7-60.7L552 313.4 574.6 336z"/></svg>
